X: 65
T:The Roman Wall
T:Pete Coe tune No. 1
M:6/8
L:1/8
C:Pete Coe
R:Jig
N:http://www.lesession.co.uk
Z:Steve Mansfield 1998-2001
K:G
D|GFG BAG|Bdg dBG|cde dcA|DFAd2D|GFG BAG|Bdg dBG|cde dcA|DEFG2::
d|g2g fed|efg dBG|cde dcA|DFAd2d|g2g fed|efg dBG|cde dcB|DEFG2d|
g2gfed|efg dBG|cde dcA|DFAd2D|GFG BAG|Bdg dBG|cde dcA|DEFG2||
<end>
<start>
